build/img/icons/map-pin.svg

<svg width="21" height="21" viewBox="0 0 21 21" fill="none" xmlns="http://www.w3.org/2000/svg">
<path d="M6.40833 14.9153C7.73553 17.0256 9.16165 18.8722 9.59031 19.4162C9.68201 19.5343 9.7995 19.6299 9.9338 19.6957C10.0681 19.7615 10.2157 19.7956 10.3652 19.7956C10.5147 19.7956 10.6623 19.7615 10.7966 19.6957C10.9309 19.6299 11.0484 19.5343 11.1401 19.4162C11.5687 18.8722 12.9949 17.0256 14.3221 14.9153C14.9997 13.8609 15.6003 12.7589 16.1191 11.6179C16.6002 10.6597 16.8807 9.61342 16.9435 8.54307C16.9722 6.76476 16.2936 5.04781 15.0571 3.76949C13.8205 2.49117 12.127 1.75607 10.3487 1.72572C9.46533 1.74284 8.59404 1.93425 7.78483 2.28896C6.97562 2.64367 6.24443 3.1547 5.63322 3.79271C5.02201 4.43073 4.54282 5.18317 4.22315 6.00685C3.90348 6.83053 3.74962 7.70924 3.77041 8.59253C3.83317 9.66288 4.11367 10.7092 4.59476 11.6674C5.12103 12.7919 5.7271 13.8773 6.40833 14.9153ZM10.3652 3.37441C11.7062 3.40469 12.9804 3.96606 13.9078 4.9352C14.8352 5.90434 15.34 7.20199 15.3113 8.54307C15.2398 9.38033 15.0046 10.1954 14.6188 10.9419C14.1322 12.031 13.5674 13.0834 12.9289 14.0909C12.0139 15.5418 10.9917 16.9102 10.3652 17.7428C9.73869 16.9184 8.7165 15.5418 7.80147 14.0497C7.16676 13.0714 6.60205 12.0494 6.11156 10.9914C5.72582 10.2449 5.49055 9.42979 5.41911 8.59253C5.39037 7.25145 5.89514 5.95381 6.82255 4.98466C7.74996 4.01552 9.02415 3.45415 10.3652 3.42387V3.37441Z" fill="white"/>
<path d="M10.3652 10.0187C11.2758 10.0187 12.0139 9.28051 12.0139 8.36996C12.0139 7.45941 11.2758 6.72126 10.3652 6.72126C9.4547 6.72126 8.71655 7.45941 8.71655 8.36996C8.71655 9.28051 9.4547 10.0187 10.3652 10.0187Z" fill="white"/>
</svg>

<svg width="21" height="21" fill="none" xmlns="http://www.w3.org/2000/svg"><path d="M6.408 14.915a55.889 55.889 0 003.182 4.501.982.982 0 001.55 0 55.903 55.903 0 003.182-4.5 26.022 26.022 0 001.797-3.298 7.881 7.881 0 00.825-3.075 6.71 6.71 0 00-6.595-6.817A6.71 6.71 0 003.77 8.593a7.881 7.881 0 00.825 3.074 26.025 26.025 0 001.813 3.248zm3.957-11.54a5.061 5.061 0 014.946 5.168 6.413 6.413 0 01-.692 2.399 24.722 24.722 0 01-1.69 3.149c-.915 1.45-1.937 2.82-2.564 3.652-.626-.825-1.649-2.201-2.564-3.693-.634-.979-1.199-2-1.69-3.059a6.413 6.413 0 01-.692-2.398 5.062 5.062 0 014.946-5.17v-.049z" fill="#fff"/><path d="M10.365 10.019a1.649 1.649 0 100-3.298 1.649 1.649 0 000 3.298z" fill="#fff"/></svg>
